X: 14718
T: Gan Ainm
R: polka
M: 2/4
K: Gmajor
BG G/F/G|gf A>B|cD F/G/A/B/|cA ed/c/|
BG G/F/G|gf A>B|cD F/G/A/B/|AG G z||
dB g>e|dB Bd|cA ce|B/>A/B/>c/ d2|
dB g>e|dB Bd|cA fd|gg g z||
B/>c/B/>A/ GD|ED ED|B/>c/B/>A/ Gd|ed ed|
B/>c/B/>A/ GD|ED ED|B/>c/B/>A/ dF|EG G z||

